icons/op-file-download-16.svg

<svg width="16" height="16" viewBox="0 0 16 16" fill="none" xmlns="http://www.w3.org/2000/svg">
<path d="M1.75 1.5C1.61193 1.5 1.5 1.61193 1.5 1.75V13.25C1.5 13.3881 1.61193 13.5 1.75 13.5H4.75C5.16421 13.5 5.5 13.8358 5.5 14.25C5.5 14.6642 5.16421 15 4.75 15H1.75C0.783502 15 0 14.2165 0 13.25V1.75C0 0.783502 0.783501 0 1.75 0H8.33579C8.79991 0 9.24503 0.184374 9.57322 0.512563L12.4874 3.42678C12.8156 3.75497 13 4.20008 13 4.66421V6.70711C13 7.12132 12.6642 7.45711 12.25 7.45711C11.8358 7.45711 11.5 7.12132 11.5 6.70711V4.66421C11.5 4.59791 11.4737 4.53432 11.4268 4.48744L8.51256 1.57322C8.46568 1.52634 8.40209 1.5 8.33579 1.5H1.75Z" fill="#1F2328"/>
<path d="M10.4 9.6V11.7512L9.62402 10.976C9.56834 10.9203 9.50223 10.8762 9.42948 10.846C9.35673 10.8159 9.27876 10.8004 9.20002 10.8004C9.12127 10.8004 9.0433 10.8159 8.97055 10.846C8.8978 10.8762 8.8317 10.9203 8.77602 10.976C8.72034 11.0317 8.67617 11.0978 8.64603 11.1705C8.6159 11.2433 8.60039 11.3213 8.60039 11.4C8.60039 11.4787 8.6159 11.5567 8.64603 11.6295C8.67617 11.7022 8.72034 11.7683 8.77602 11.824L10.576 13.624C10.6317 13.6797 10.6978 13.7239 10.7705 13.7541C10.8433 13.7843 10.9213 13.7998 11 13.7998C11.0788 13.7998 11.1568 13.7843 11.2295 13.7541C11.3023 13.7239 11.3684 13.6797 11.424 13.624L13.224 11.824C13.2797 11.7683 13.3239 11.7022 13.354 11.6295C13.3841 11.5567 13.3996 11.4787 13.3996 11.4C13.3996 11.3213 13.3841 11.2433 13.354 11.1705C13.3239 11.0978 13.2797 11.0317 13.224 10.976C13.1683 10.9203 13.1022 10.8762 13.0295 10.846C12.9567 10.8159 12.8788 10.8004 12.8 10.8004C12.7213 10.8004 12.6433 10.8159 12.5706 10.846C12.4978 10.8762 12.4317 10.9203 12.376 10.976L11.6 11.7512V9.6C11.6 9.44087 11.5368 9.28826 11.4243 9.17574C11.3118 9.06321 11.1591 9 11 9C10.8409 9 10.6883 9.06321 10.5758 9.17574C10.4632 9.28826 10.4 9.44087 10.4 9.6Z" fill="#1F2328"/>
<path d="M7.41005 15.5899C7.6726 15.8525 8.0287 16 8.4 16H13.6C13.9713 16 14.3274 15.8525 14.5899 15.5899C14.8525 15.3274 15 14.9713 15 14.6V14.2C15 14.0409 14.9368 13.8883 14.8243 13.7757C14.7117 13.6632 14.5591 13.6 14.4 13.6C14.2409 13.6 14.0883 13.6632 13.9757 13.7757C13.8632 13.8883 13.8 14.0409 13.8 14.2V14.6C13.8 14.653 13.7789 14.7039 13.7414 14.7414C13.7039 14.7789 13.653 14.8 13.6 14.8H8.4C8.2896 14.8 8.2 14.7104 8.2 14.6V14.2C8.2 14.0409 8.13679 13.8883 8.02426 13.7757C7.91174 13.6632 7.75913 13.6 7.6 13.6C7.44087 13.6 7.28826 13.6632 7.17574 13.7757C7.06321 13.8883 7 14.0409 7 14.2V14.6C7 14.9713 7.1475 15.3274 7.41005 15.5899Z" fill="#1F2328"/>
</svg>

<svg xmlns="http://www.w3.org/2000/svg" width="16" height="16" viewBox="0 0 16 16"><path d="M1.75 1.5a.25.25 0 0 0-.25.25v11.5c0 .138.112.25.25.25h3a.75.75 0 0 1 0 1.5h-3A1.75 1.75 0 0 1 0 13.25V1.75C0 .784.784 0 1.75 0h6.586c.464 0 .909.184 1.237.513l2.914 2.914c.329.328.513.773.513 1.237v2.043a.75.75 0 0 1-1.5 0V4.664a.25.25 0 0 0-.073-.177L8.513 1.573a.25.25 0 0 0-.177-.073H1.75Z"/><path d="M10.4 9.6v2.151l-.776-.775a.595.595 0 0 0-.653-.13.595.595 0 0 0-.371.554.605.605 0 0 0 .176.424l1.8 1.8a.595.595 0 0 0 .653.13.595.595 0 0 0 .195-.13l1.8-1.8a.602.602 0 0 0 0-.848.602.602 0 0 0-.848 0l-.776.775V9.6A.597.597 0 0 0 11 9a.597.597 0 0 0-.6.6Z"/><path d="M7.41 15.59c.263.262.619.41.99.41h5.2a1.404 1.404 0 0 0 1.4-1.4v-.4a.597.597 0 0 0-.6-.6.597.597 0 0 0-.6.6v.4a.197.197 0 0 1-.059.141.197.197 0 0 1-.141.059H8.4a.2.2 0 0 1-.2-.2v-.4a.597.597 0 0 0-.6-.6.597.597 0 0 0-.6.6v.4c0 .371.147.727.41.99Z"/></svg>
